X: 2
T: Brenda Stubbert's
R: reel
M: 4/4
L: 1/8
K: Ador
A2BA GAAB|A2Bd eddB|G2BA BGGB|c2BA BGGB|~A3B GABG|A2Bd edda|gedB GABd|e2dB eA~A2:|Aza2 Azg2|eage ageg|G2BA BGGB|c2BA BGGB|Aza2 Azg2|eage agea|gedB GABd|e2dB eA~A2|Aza2 Azg2|eage ageg|G2BA BGGB|c2BA BGGB|A3A GABG|A2Bd edda|gedB GABd|e2dB eA~A2||


Tune 727	Setting 22189

